X:1
T:Andantion in A major
T:Andantino in A major
T:Matteo Carcassi
T:25 Etudes (Op. 60, No. 3)
%%score { ( 1 2 3 ) | ( 4 5 6 ) }
L:1/8
Q:1/4=80
M:4/4
K:A
V:1 treble-8 nm="Classical Guitar" snm="Guit."
V:2 treble-8 
V:3 treble-8 
V:4 tab stafflines=6 strings=E2,A2,D3,G3,B3,E4 nostems 
V:5 tab stafflines=6 strings=E2,A2,D3,G3,B3,E4 nostems 
V:6 tab stafflines=6 strings=E2,A2,D3,G3,B3,E4 nostems 
V:1
 (3z Ac (3fAc (3eAc (3z Ac | (3z Bd (3fBd (3eBd (3z Bd | (3z Bd (3aBd (3gBd (3z Bd | %3
 (3z ce (3bce (3ace (3z ce | (3z Ac (3gAc (3fAc (3z Ac |!<(! (3z =Gc (3fGc (3eGc (3z Gc!<)! | %6
 (3z!>(! FA (3eFA (3z FA (3^dFA!>)! | (3z GB (3eGB E2 z2 :: (3z GB (3fGB (3eGB (3z GB | %9
 (3z Ac (3gAc (3fAc (3z Ac | (3z ^Ac (3=gAc (3fAc!<(! (3z Ac!<)! | (3z Bd (3aBd (3gBd (3z Bd | %12
 (3z Bd (3aBd (3gBd (3z Bd | (3z Ac (3aAc (3z Ac (3aAc | (3z df (3bdf (3z df (3=c'df | %15
!>(! (3z =fg (3c'fg cdBe!>)! | (3z Ac (3fAc (3eAc (3z Ac | (3z Bd (3aBd (3gBd (3z Bd | %18
 (3z GB (3fGB (3eGB (3z GB | (3z ce (3bce (3ace (3z ce |!<(! (3z ce (3bce (3^ace (3z ce!<)! | %21
!<(! (3z df (3c'df (3bdf (3d'"^Rit."d!>(!f!<)!!>)! |[Q:1/4=64] (3z AB (3=fAB (3z Gd (3eGd | %23
 (3z ce (3ace A2 z2 :| %24
V:2
 z6 z2 | z6 z2 | E,6 E,2 | A,6 A,2 | A,6 A,2 | ^A,6 A,2 | B,4 B,4 | E,6 z2 :: E,6 E2 | E,6 E2 | %10
 E,6 E2 | E,6 E2 | =F6 F2 | F4 F4 | D4 D4 | C6 z2 | A,6 A,2 | A,6 A,2 | A,6 A,2 | A,6 A2 | F6 F2 | %21
 D8 | ^D4 E4 | A,6 z2 :| %24
V:3
 A,6 A,2 | G,6 G,2 | x8 | x8 | x8 | x8 | x8 | x8 :: x8 | x8 | x8 | x8 | x8 | x8 | x8 | x8 | x8 | %17
 x8 | x8 | x8 | x8 | x8 | x8 | x8 :| %24
V:4
!mf! (3x !3!A, !2!C (3!1!F !3!A, !2!C (3!1!E !3!A, !2!C (3x !3!A, !2!C | %1
 (3x !3!B, !2!D (3!1!F !3!B, !2!D (3!1!E !3!B, !2!D (3x !3!B, !2!D | %2
 (3x !3!B, !2!D (3!1!A !3!B, !2!D (3!1!G !3!B, !2!D (3x !3!B, !2!D | %3
 (3x !3!C !2!E (3!1!B !3!C !2!E (3!1!A !3!C !2!E (3x !3!C !2!E | %4
 (3x !3!A, !2!C (3!1!G !3!A, !2!C (3!1!F !3!A, !2!C (3x !3!A, !2!C | %5
!<(! (3x !3!=G, !2!C (3!1!F !3!G, !2!C (3!1!E !3!G, !2!C (3x !3!G,!f! !2!C!<)! | %6
 (3x!>(! !4!F, !3!A, (3!2!E !4!F, !3!A, (3x !4!F, !3!A, (3!2!^D !4!F, !3!A,!>)! | %7
 (3x !3!G, !2!B, (3!1!E !3!G, !2!B,!mp! !4!E,2 x2 :: %8
 (3x !3!G, !2!B, (3!1!F !3!G, !2!B, (3!1!E !3!G, !2!B, (3x !3!G, !2!B, | %9
 (3x !3!A, !2!C (3!1!G !3!A, !2!C (3!1!F !3!A, !2!C (3x !3!A, !2!C | %10
 (3x !3!^A, !2!C (3!1!=G !3!A, !2!C (3!1!F !3!A, !2!C!<(! (3x !3!A, !2!C!<)! | %11
 (3x !3!B, !2!D (3!1!A !3!B, !2!D (3!1!G !3!B, !2!D (3x !3!B,!f! !2!D | %12
 (3x !3!B, !2!D (3!1!A !3!B, !2!D (3!1!G !3!B, !2!D (3x !3!B, !2!D | %13
 (3x !3!A, !2!C (3!1!A !3!A, !2!C (3x !3!A, !2!C (3!1!A !3!A, !2!C | %14
 (3x !3!D !2!F (3!1!B !3!D !2!F (3x !3!D !2!F (3!1!=c !3!D !2!F | %15
!>(! (3x !3!=F !2!G (3!1!c !3!F !2!G !4!C !4!D!mp! !2!B, !1!E!>)! | %16
 (3x !3!A, !2!C (3!1!F !3!A, !2!C (3!1!E !3!A, !2!C (3x !3!A, !2!C | %17
 (3x !3!B, !2!D (3!1!A !3!B, !2!D (3!1!G !3!B, !2!D (3x !3!B, !2!D | %18
 (3x !3!G, !2!B, (3!1!F !3!G, !2!B, (3!1!E !3!G, !2!B, (3x !3!G, !2!B, | %19
 (3x !3!C !2!E (3!1!B !3!C !2!E (3!1!A !3!C !2!E (3x !3!C !2!E | %20
!<(! (3x !3!C !2!E (3!1!B !3!C !2!E (3!1!^A !3!C !2!E (3x !3!C !1!E!<)! | %21
!<(! (3x !3!D !2!F (3!1!c !3!D !2!F (3!1!B !3!D !2!F (3!1!d !3!D!f!!>(! !2!F!<)!!>)! | %22
!p! (3x !3!A, !2!B, (3!1!=F !3!A, !2!B, (3x !3!G, !2!D (3!1!E !3!G, !2!D | %23
 (3x !3!C !2!E (3!1!A !3!C !2!E !4!A,2 x2 :| %24
V:5
 x6 x2 | x6 x2 | !6!E,,6 !6!E,,2 | !5!A,,6 !5!A,,2 | !5!A,,6 !5!A,,2 | !5!^A,,6 !5!A,,2 | %6
 !5!B,,4 !5!B,,4 | !6!E,,6 x2 :: !6!E,,6 !4!E,2 | !6!E,,6 !4!E,2 | !6!E,,6 !4!E,2 | %11
 !6!E,,6 !4!E,2 | !4!=F,6 !4!F,2 | !4!F,4 !4!F,4 | !4!D,4 !4!D,4 | !6!C,6 x2 | !5!A,,6 !5!A,,2 | %17
 !5!A,,6 !5!A,,2 | !5!A,,6 !5!A,,2 | !5!A,,6 !4!A,2 | !4!F,6 !4!F,2 | !4!D,8 | !4!^D,4 !4!E,4 | %23
 !5!A,,6 x2 :| %24
V:6
 !5!A,,6 !5!A,,2 | !6!G,,6 !6!G,,2 | x8 | x8 | x8 | x8 | x8 | x8 :: x8 | x8 | x8 | x8 | x8 | x8 | %14
 x8 | x8 | x8 | x8 | x8 | x8 | x8 | x8 | x8 | x8 :| %24

